2023_japangoods/img/brand/side-right.svg

<svg width="69" height="614" viewBox="0 0 69 614" fill="none" xmlns="http://www.w3.org/2000/svg">
<circle cx="34.4587" cy="34.4587" r="32.8178" stroke="#F4F2EE" stroke-width="3.28178"/>
<path d="M47.5026 49.6695C45.6495 48.7309 43.8927 47.5998 42.2321 46.2762C40.5715 44.9525 39.0914 43.4604 37.7919 41.7998C36.4923 40.1392 35.4574 38.3704 34.6873 36.4932C33.6043 39.1886 31.9557 41.6915 29.7416 44.0019C27.5275 46.2882 24.9043 48.1654 21.8719 49.6334C21.2462 49.9463 20.6084 50.0546 19.9586 49.9583C19.3089 49.8621 18.8035 49.477 18.4425 48.8031C18.1055 48.1774 18.0574 47.5637 18.2981 46.9621C18.5628 46.3363 19.0321 45.8791 19.706 45.5903C21.9441 44.6517 23.9416 43.4123 25.6985 41.872C27.4794 40.3077 28.9354 38.5509 30.0665 36.6015C31.1977 34.6521 31.9196 32.6185 32.2325 30.5006H20.4279C19.8503 30.5006 19.357 30.2961 18.9479 29.8869C18.5387 29.4778 18.3342 28.9845 18.3342 28.4069C18.3342 27.8293 18.5387 27.3359 18.9479 26.9268C19.357 26.5177 19.8503 26.3131 20.4279 26.3131H32.413V19.2015C32.413 18.5035 32.6416 17.95 33.0989 17.5409C33.5562 17.1318 34.0856 16.9272 34.6873 16.9272C35.313 16.9272 35.8425 17.1318 36.2757 17.5409C36.7329 17.95 36.9616 18.5035 36.9616 19.2015V26.3131H49.0188C49.5964 26.3131 50.0898 26.5177 50.4989 26.9268C50.908 27.3359 51.1126 27.8293 51.1126 28.4069C51.1126 28.9845 50.908 29.4778 50.4989 29.8869C50.0898 30.2961 49.5964 30.5006 49.0188 30.5006H37.1782C37.5392 32.5704 38.2972 34.5799 39.4524 36.5293C40.6076 38.4787 42.0757 40.2475 43.8566 41.8359C45.6616 43.4002 47.6831 44.6757 49.9213 45.6625C50.5711 45.9513 50.9802 46.3965 51.1487 46.9982C51.3412 47.5758 51.2811 48.1654 50.9682 48.767C50.6313 49.4168 50.1259 49.8019 49.452 49.9222C48.7782 50.0666 48.1284 49.9824 47.5026 49.6695Z" fill="#F4F2EE"/>
<g clip-path="url(#clip0_76_63364)">
<path d="M15.9278 525.773C7.29612 514.306 7.29612 498.301 15.9278 486.834C23.364 476.944 23.364 463.112 15.9278 453.222C7.29612 441.755 7.29612 425.75 15.9278 414.283C23.364 404.393 23.364 390.561 15.9278 380.671C7.29612 369.204 7.29612 353.198 15.9278 341.732C23.364 331.841 23.364 318.01 15.9278 308.12C7.29612 296.653 7.29612 280.647 15.9278 269.18C23.364 259.29 23.364 245.458 15.9278 235.568C7.29612 224.102 7.29612 208.096 15.9278 196.629C23.364 186.739 23.364 172.907 15.9278 163.017C7.29612 151.55 7.29612 135.545 15.9278 124.078C23.364 114.188 23.364 100.356 15.9278 90.4659L19.4666 87.8142C28.0982 99.281 28.0982 115.287 19.4666 126.753C12.0304 136.644 12.0304 150.475 19.4666 160.365C28.0982 171.832 28.0982 187.838 19.4666 199.305C12.0304 209.195 12.0304 223.027 19.4666 232.917C28.0982 244.383 28.0982 260.389 19.4666 271.856C12.0304 281.746 12.0304 295.578 19.4666 305.468C28.0982 316.935 28.0982 332.94 19.4666 344.407C12.0304 354.297 12.0304 368.129 19.4666 378.019C28.0982 389.486 28.0982 405.492 19.4666 416.958C12.0304 426.848 12.0304 440.68 19.4666 450.57C28.0982 462.037 28.0982 478.043 19.4666 489.51C12.0304 499.4 12.0304 513.231 19.4666 523.122L15.9278 525.773Z" fill="#F4F2EE"/>
<path d="M32.6893 525.773C24.0577 514.306 24.0577 498.301 32.6893 486.834C40.1255 476.944 40.1255 463.112 32.6893 453.222C24.0577 441.755 24.0577 425.75 32.6893 414.283C40.1255 404.393 40.1255 390.561 32.6893 380.671C24.0577 369.204 24.0577 353.198 32.6893 341.732C40.1255 331.841 40.1255 318.01 32.6893 308.12C24.0577 296.653 24.0577 280.647 32.6893 269.18C40.1255 259.29 40.1255 245.458 32.6893 235.568C24.0577 224.102 24.0577 208.096 32.6893 196.629C40.1255 186.739 40.1255 172.907 32.6893 163.017C24.0577 151.55 24.0577 135.545 32.6893 124.078C40.1255 114.188 40.1255 100.356 32.6893 90.4659L36.2281 87.8142C44.8598 99.281 44.8598 115.287 36.2281 126.753C28.7919 136.644 28.7919 150.475 36.2281 160.365C44.8598 171.832 44.8598 187.838 36.2281 199.305C28.7919 209.195 28.7919 223.027 36.2281 232.917C44.8598 244.383 44.8598 260.389 36.2281 271.856C28.7919 281.746 28.7919 295.578 36.2281 305.468C44.8598 316.935 44.8598 332.94 36.2281 344.407C28.7919 354.297 28.7919 368.129 36.2281 378.019C44.8598 389.486 44.8598 405.492 36.2281 416.958C28.7919 426.848 28.7919 440.68 36.2281 450.57C44.8598 462.037 44.8598 478.043 36.2281 489.51C28.7919 499.4 28.7919 513.231 36.2281 523.122L32.6893 525.773Z" fill="#F4F2EE"/>
<path d="M50.6911 522.76L49.8186 523.414C42.6117 512.661 42.9331 498.265 50.7827 487.837L50.7832 487.836C58.6656 477.352 58.6656 462.704 50.7832 452.22L50.7827 452.219C42.598 441.346 42.598 426.159 50.7827 415.286L50.7832 415.285C58.6656 404.801 58.6656 390.152 50.7832 379.669L50.7827 379.668C42.598 368.795 42.598 353.607 50.7827 342.734L50.7832 342.734C58.6656 332.25 58.6656 317.601 50.7832 307.118L50.7827 307.117C42.598 296.244 42.598 281.056 50.7827 270.183L50.7832 270.182C58.6656 259.699 58.6656 245.05 50.7832 234.566L50.7827 234.566C42.598 223.693 42.598 208.505 50.7827 197.632L50.7832 197.631C58.6656 187.148 58.6656 172.499 50.7832 162.015L50.7827 162.014C42.598 151.141 42.598 135.954 50.7827 125.081L50.7832 125.08C58.3295 115.043 58.6513 101.189 51.7488 90.8273L52.6213 90.1735C59.8282 100.926 59.5068 115.323 51.6572 125.751L51.6566 125.751C43.7742 136.235 43.7742 150.884 51.6566 161.367L51.6572 161.368C59.8419 172.241 59.8419 187.429 51.6572 198.302L51.6566 198.303C43.7742 208.786 43.7742 223.435 51.6566 233.919L51.6572 233.919C59.8419 244.792 59.8419 259.98 51.6572 270.853L51.6566 270.854C43.7742 281.337 43.7742 295.986 51.6566 306.47L51.6572 306.471C59.8419 317.344 59.8419 332.531 51.6572 343.404L51.6566 343.405C43.7742 353.889 43.7742 368.538 51.6566 379.021L51.6572 379.022C59.8419 389.895 59.8419 405.083 51.6572 415.956L51.6566 415.956C43.7742 426.44 43.7742 441.089 51.6566 451.572L51.6572 451.573C59.8419 462.446 59.8419 477.634 51.6572 488.507L51.6566 488.508C44.1104 498.544 43.7886 512.398 50.6911 522.76Z" fill="#F4F2EE" stroke="#F4F2EE" stroke-width="3.33471"/>
</g>
<circle cx="34.4587" cy="579.129" r="32.8178" stroke="#F4F2EE" stroke-width="3.28178"/>
<path d="M43.4595 595.17C42.93 595.17 42.4728 594.989 42.0877 594.628C41.7026 594.291 41.5101 593.822 41.5101 593.22V588.094H32.413C31.8595 588.094 31.4143 587.926 31.0773 587.589C30.7645 587.228 30.608 586.795 30.608 586.289C30.608 585.784 30.7645 585.363 31.0773 585.026C31.4143 584.665 31.8595 584.484 32.413 584.484H33.7126C33.8811 584.171 34.0856 583.774 34.3263 583.293C34.591 582.787 34.8437 582.294 35.0844 581.813C35.325 581.331 35.5055 580.97 35.6259 580.73C36.0109 579.936 36.6126 579.563 37.4309 579.611C35.7462 579.49 34.5188 579.021 33.7487 578.203C33.0026 577.36 32.6296 576.049 32.6296 574.268V570.189C32.6296 568.263 33.0628 566.904 33.9292 566.109C34.7956 565.291 36.2035 564.87 38.1528 564.846C38.2972 564.461 38.4537 564.028 38.6221 563.546C38.8147 563.065 38.947 562.74 39.0192 562.572C39.2118 561.97 39.5367 561.549 39.9939 561.308C40.4753 561.043 41.0408 560.983 41.6906 561.128C42.2682 561.272 42.6894 561.573 42.9541 562.03C43.2188 562.463 43.2429 562.957 43.0263 563.51C42.9541 563.679 42.8699 563.883 42.7736 564.124C42.6773 564.341 42.569 564.569 42.4487 564.81H44.362C46.4798 564.81 47.996 565.219 48.9105 566.037C49.8491 566.831 50.3184 568.215 50.3184 570.189V574.268C50.3184 576.049 49.9333 577.36 49.1632 578.203C48.3931 579.021 47.1537 579.49 45.445 579.611V584.484H50.2823C50.8358 584.484 51.269 584.665 51.5819 585.026C51.9188 585.363 52.0873 585.784 52.0873 586.289C52.0873 586.795 51.9188 587.228 51.5819 587.589C51.269 587.926 50.8358 588.094 50.2823 588.094H45.445V593.22C45.445 593.822 45.2524 594.291 44.8674 594.628C44.4823 594.989 44.013 595.17 43.4595 595.17ZM28.2616 594.267C27.7562 594.267 27.3109 594.099 26.9259 593.762C26.5408 593.449 26.3483 593.004 26.3483 592.426V583.293C26.3483 582.691 26.24 582.27 26.0234 582.029C25.8068 581.765 25.3856 581.632 24.7599 581.632H23.6047C23.4362 584.063 23.1595 586.193 22.7744 588.022C22.3894 589.851 21.896 591.475 21.2943 592.895C21.0537 593.449 20.6806 593.858 20.1752 594.123C19.6939 594.412 19.1524 594.448 18.5508 594.231C17.9732 594.014 17.6122 593.653 17.4678 593.148C17.3234 592.667 17.3715 592.161 17.6122 591.632C18.5026 589.658 19.1163 587.384 19.4533 584.809C19.8142 582.21 19.9947 579.105 19.9947 575.495V563.474C19.9947 562.897 20.1752 562.439 20.5362 562.102C20.9213 561.741 21.3786 561.561 21.908 561.561C22.4375 561.561 22.8827 561.741 23.2437 562.102C23.6288 562.439 23.8213 562.897 23.8213 563.474V570.766H26.0234V563.546C26.0234 562.969 26.2039 562.512 26.5649 562.175C26.9499 561.814 27.4072 561.633 27.9367 561.633C28.4661 561.633 28.9113 561.814 29.2723 562.175C29.6333 562.512 29.8138 562.969 29.8138 563.546V570.766H30.2831C30.8367 570.766 31.2699 570.947 31.5827 571.308C31.9196 571.645 32.0881 572.066 32.0881 572.571C32.0881 573.077 31.9196 573.51 31.5827 573.871C31.2699 574.208 30.8367 574.376 30.2831 574.376H23.8213V575.495C23.8213 575.904 23.8093 576.314 23.7852 576.723C23.7852 577.132 23.7852 577.541 23.7852 577.95H26.1317C27.5757 577.95 28.6105 578.275 29.2362 578.925C29.886 579.551 30.2109 580.585 30.2109 582.029V592.426C30.2109 593.004 30.0184 593.449 29.6333 593.762C29.2483 594.099 28.791 594.267 28.2616 594.267ZM37.864 584.484H41.5101V579.647H38.5138C38.3454 579.647 38.1769 579.647 38.0084 579.647C37.864 579.623 37.7076 579.611 37.5392 579.611C37.7317 579.611 37.9483 579.671 38.1889 579.791C38.6943 580.008 39.0313 580.357 39.1997 580.838C39.3682 581.319 39.3201 581.801 39.0553 582.282C38.9591 582.523 38.7906 582.848 38.5499 583.257C38.3333 583.666 38.1047 584.075 37.864 584.484ZM43.3151 576.434H44.1454C45.084 576.434 45.7217 576.29 46.0587 576.001C46.3956 575.712 46.5641 575.158 46.5641 574.34V573.69H43.3151V576.434ZM38.8026 576.434H39.5968V573.69H36.384V574.34C36.384 575.158 36.5524 575.712 36.8894 576.001C37.2263 576.29 37.864 576.434 38.8026 576.434ZM43.3151 570.658H46.5641V570.153C46.5641 569.334 46.3956 568.781 46.0587 568.492C45.7217 568.179 45.084 568.023 44.1454 568.023H43.3151V570.658ZM36.384 570.658H39.5968V568.023H38.8026C37.864 568.023 37.2263 568.179 36.8894 568.492C36.5524 568.781 36.384 569.334 36.384 570.153V570.658Z" fill="#F4F2EE"/>
<defs>
<clipPath id="clip0_76_63364">
<rect width="50.0207" height="437.959" fill="white" transform="translate(9.44836 87.8142)"/>
</clipPath>
</defs>
</svg>

<svg width="69" height="614" fill="none" xmlns="http://www.w3.org/2000/svg"><circle cx="34.459" cy="34.459" r="32.818" stroke="#F4F2EE" stroke-width="3.282"/><path d="M47.503 49.67a30.687 30.687 0 0 1-5.27-3.394 26.937 26.937 0 0 1-4.441-4.476 22.349 22.349 0 0 1-3.105-5.307c-1.083 2.696-2.731 5.198-4.945 7.509-2.215 2.286-4.838 4.163-7.87 5.631-.626.313-1.264.422-1.913.325-.65-.096-1.155-.481-1.517-1.155-.337-.626-.385-1.24-.144-1.84.265-.627.734-1.084 1.408-1.373a21.813 21.813 0 0 0 5.992-3.718c1.781-1.564 3.237-3.321 4.369-5.27 1.13-1.95 1.853-3.983 2.166-6.101H20.428c-.578 0-1.071-.205-1.48-.614a2.017 2.017 0 0 1-.614-1.48c0-.578.205-1.071.614-1.48.409-.41.902-.614 1.48-.614h11.985v-7.111c0-.699.229-1.252.686-1.661a2.31 2.31 0 0 1 1.588-.614c.626 0 1.156.205 1.589.614.457.409.686.962.686 1.66v7.112h12.057c.577 0 1.07.205 1.48.614.409.409.614.902.614 1.48s-.205 1.07-.614 1.48c-.41.41-.903.614-1.48.614h-11.84c.36 2.07 1.118 4.079 2.273 6.028 1.156 1.95 2.624 3.718 4.405 5.307a23.955 23.955 0 0 0 6.064 3.827c.65.288 1.06.734 1.228 1.335.192.578.132 1.167-.18 1.769-.338.65-.843 1.035-1.517 1.155a2.888 2.888 0 0 1-1.95-.252Z" fill="#F4F2EE"/><g clip-path="url(#a)" fill="#F4F2EE"><path d="M15.928 525.773c-8.632-11.467-8.632-27.472 0-38.939 7.436-9.89 7.436-23.722 0-33.612-8.632-11.467-8.632-27.472 0-38.939 7.436-9.89 7.436-23.722 0-33.612-8.632-11.467-8.632-27.473 0-38.939 7.436-9.891 7.436-23.722 0-33.612-8.632-11.467-8.632-27.473 0-38.94 7.436-9.89 7.436-23.722 0-33.612-8.632-11.466-8.632-27.472 0-38.939 7.436-9.89 7.436-23.722 0-33.612-8.632-11.467-8.632-27.472 0-38.939 7.436-9.89 7.436-23.722 0-33.612l3.539-2.652c8.631 11.467 8.631 27.473 0 38.939-7.437 9.891-7.437 23.722 0 33.612 8.631 11.467 8.631 27.473 0 38.94-7.437 9.89-7.437 23.722 0 33.612 8.631 11.466 8.631 27.472 0 38.939-7.437 9.89-7.437 23.722 0 33.612 8.631 11.467 8.631 27.472 0 38.939-7.437 9.89-7.437 23.722 0 33.612 8.631 11.467 8.631 27.473 0 38.939-7.437 9.89-7.437 23.722 0 33.612 8.631 11.467 8.631 27.473 0 38.94-7.437 9.89-7.437 23.721 0 33.612l-3.54 2.651Z"/><path d="M32.69 525.773c-8.632-11.467-8.632-27.472 0-38.939 7.436-9.89 7.436-23.722 0-33.612-8.632-11.467-8.632-27.472 0-38.939 7.436-9.89 7.436-23.722 0-33.612-8.632-11.467-8.632-27.473 0-38.939 7.436-9.891 7.436-23.722 0-33.612-8.632-11.467-8.632-27.473 0-38.94 7.436-9.89 7.436-23.722 0-33.612-8.632-11.466-8.632-27.472 0-38.939 7.436-9.89 7.436-23.722 0-33.612-8.632-11.467-8.632-27.472 0-38.939 7.436-9.89 7.436-23.722 0-33.612l3.538-2.652c8.632 11.467 8.632 27.473 0 38.939-7.436 9.891-7.436 23.722 0 33.612 8.632 11.467 8.632 27.473 0 38.94-7.436 9.89-7.436 23.722 0 33.612 8.632 11.466 8.632 27.472 0 38.939-7.436 9.89-7.436 23.722 0 33.612 8.632 11.467 8.632 27.472 0 38.939-7.436 9.89-7.436 23.722 0 33.612 8.632 11.467 8.632 27.473 0 38.939-7.436 9.89-7.436 23.722 0 33.612 8.632 11.467 8.632 27.473 0 38.94-7.436 9.89-7.436 23.721 0 33.612l-3.539 2.651Z"/><path d="m50.691 522.76-.872.654c-7.207-10.753-6.886-25.149.964-35.577v-.001c7.883-10.484 7.883-25.132 0-35.616v-.001c-8.185-10.873-8.185-26.06 0-36.933v-.001c7.883-10.484 7.883-25.133 0-35.616v-.001c-8.185-10.873-8.185-26.061 0-36.934 7.883-10.484 7.883-25.133 0-35.616v-.001c-8.185-10.873-8.185-26.061 0-36.934v-.001c7.883-10.483 7.883-25.132 0-35.616-8.185-10.873-8.185-26.061 0-36.934v-.001c7.883-10.483 7.883-25.132 0-35.616v-.001c-8.185-10.873-8.185-26.06 0-36.933v-.001c7.547-10.037 7.868-23.891.966-34.253l.872-.653c7.207 10.752 6.886 25.149-.964 35.577-7.883 10.484-7.883 25.133 0 35.616v.001c8.185 10.873 8.185 26.061 0 36.934v.001c-7.883 10.483-7.883 25.132 0 35.616 8.185 10.873 8.185 26.061 0 36.934v.001c-7.883 10.483-7.883 25.132 0 35.616v.001c8.185 10.873 8.185 26.06 0 36.933v.001c-7.883 10.484-7.883 25.133 0 35.616v.001c8.185 10.873 8.185 26.061 0 36.934-7.883 10.484-7.883 25.133 0 35.616v.001c8.185 10.873 8.185 26.061 0 36.934v.001c-7.547 10.036-7.868 23.89-.966 34.252Z" stroke="#F4F2EE" stroke-width="3.335"/></g><circle cx="34.459" cy="579.129" r="32.818" stroke="#F4F2EE" stroke-width="3.282"/><path d="M43.46 595.17c-.53 0-.987-.181-1.372-.542-.385-.337-.578-.806-.578-1.408v-5.126h-9.097c-.553 0-.999-.168-1.336-.505a1.918 1.918 0 0 1-.469-1.3c0-.505.157-.926.47-1.263.336-.361.782-.542 1.335-.542h1.3c.168-.313.373-.71.613-1.191.265-.506.518-.999.758-1.48l.542-1.083c.385-.794.987-1.167 1.805-1.119-1.685-.121-2.912-.59-3.682-1.408-.746-.843-1.12-2.154-1.12-3.935v-4.079c0-1.926.434-3.285 1.3-4.08.867-.818 2.274-1.239 4.224-1.263.144-.385.3-.818.47-1.3.192-.481.324-.806.396-.974.193-.602.518-1.023.975-1.264.481-.265 1.047-.325 1.697-.18.577.144.998.445 1.263.902.265.433.289.927.072 1.48-.072.169-.156.373-.252.614-.097.217-.205.445-.325.686h1.913c2.118 0 3.634.409 4.548 1.227.94.794 1.408 2.178 1.408 4.152v4.079c0 1.781-.385 3.092-1.155 3.935-.77.818-2.01 1.287-3.718 1.408v4.873h4.837c.554 0 .987.181 1.3.542.337.337.505.758.505 1.263 0 .506-.168.939-.505 1.3-.313.337-.746.505-1.3.505h-4.837v5.126c0 .602-.193 1.071-.578 1.408a1.983 1.983 0 0 1-1.407.542Zm-15.198-.903c-.506 0-.951-.168-1.336-.505-.385-.313-.578-.758-.578-1.336v-9.133c0-.602-.108-1.023-.325-1.264-.216-.264-.637-.397-1.263-.397h-1.155c-.169 2.431-.445 4.561-.83 6.39-.386 1.829-.879 3.453-1.48 4.873a2.43 2.43 0 0 1-1.12 1.228c-.481.289-1.023.325-1.624.108-.578-.217-.939-.578-1.083-1.083-.145-.481-.096-.987.144-1.516.89-1.974 1.504-4.248 1.841-6.823.361-2.599.542-5.704.542-9.314v-12.021c0-.577.18-1.035.541-1.372a1.937 1.937 0 0 1 1.372-.541c.53 0 .975.18 1.336.541.385.337.577.795.577 1.372v7.292h2.202v-7.22c0-.577.18-1.034.542-1.371a1.938 1.938 0 0 1 1.372-.542c.53 0 .974.181 1.335.542.361.337.542.794.542 1.371v7.22h.47c.553 0 .986.181 1.299.542.337.337.505.758.505 1.263 0 .506-.168.939-.505 1.3-.313.337-.746.505-1.3.505h-6.462v1.119c0 .409-.012.819-.036 1.228v1.227h2.347c1.444 0 2.478.325 3.104.975.65.626.975 1.66.975 3.104v10.397c0 .578-.193 1.023-.578 1.336a2.014 2.014 0 0 1-1.371.505Zm9.602-9.783h3.646v-4.837h-3.502a2.866 2.866 0 0 0-.469-.036c.193 0 .41.06.65.18.505.217.842.566 1.01 1.047.17.481.121.963-.144 1.444a7.726 7.726 0 0 1-.505.975c-.217.409-.445.818-.686 1.227Zm5.451-8.05h.83c.939 0 1.577-.144 1.914-.433.337-.289.505-.843.505-1.661v-.65h-3.249v2.744Zm-4.512 0h.794v-2.744h-3.213v.65c0 .818.168 1.372.505 1.661.337.289.975.433 1.914.433Zm4.512-5.776h3.25v-.505c0-.819-.17-1.372-.506-1.661-.337-.313-.975-.469-1.914-.469h-.83v2.635Zm-6.931 0h3.213v-2.635h-.794c-.939 0-1.577.156-1.914.469-.337.289-.505.842-.505 1.661v.505Z" fill="#F4F2EE"/><defs><clipPath id="a"><path fill="#fff" transform="translate(9.448 87.814)" d="M0 0h50.021v437.959H0z"/></clipPath></defs></svg>
